X:85
T: Der schwatzhafte Junggeselle
N: Q0139
O: Osteuropa, UdSSR, Baltikum
N: Schlusspause weggelassen.
R: Ballade, Indiskretion, verweigerter Beischlaf; Studenten - Lied
M: 4/4
L: 1/16
K: F
C4 | F4E2D2C4B4 | B4A4d4c2
C2 | F4E2D2C4B4 | B4A4d4c2
c2 | A3cc2c2c4c2c2 | d2c2B2A2G6
c2 | C2C2C2C2c4c2c2 | c2B2A2G2F4
